public/images/case-studies/maikeinc/feature5.svg

<svg width="62" height="64" viewBox="0 0 62 64" fill="none" xmlns="http://www.w3.org/2000/svg">
<path d="M56.5334 12.2666H27.7334V14.3999H56.5334V12.2666Z" fill="#FF6B00"/>
<path d="M56.5333 8H36.2666V10.1333H56.5333V8Z" fill="#FF6B00"/>
<path d="M29.8667 43.7337C29.8667 44.3228 30.3443 44.8003 30.9334 44.8003C31.5225 44.8003 32 44.3228 32 43.7337C32 43.1446 31.5225 42.667 30.9334 42.667C30.3443 42.667 29.8667 43.1446 29.8667 43.7337Z" fill="#FF6B00"/>
<path d="M46.9539 27.1591L45.4456 25.6509L43.3123 27.7842C42.8959 28.2007 42.8959 28.8759 43.3123 29.2925L45.4456 31.4258L46.9539 29.9175L45.5747 28.5383L46.9539 27.1591Z" fill="#FF6B00"/>
<path d="M55.4873 27.7842L53.354 25.6509L51.8457 27.1591L53.2249 28.5383L51.8457 29.9175L53.354 31.4258L55.4873 29.2925C55.9037 28.8759 55.9037 28.2007 55.4873 27.7842Z" fill="#FF6B00"/>
<path d="M49.4551 25L47.3198 31.3999L49.3425 32.0748L51.4778 25.6749L49.4551 25Z" fill="#FF6B00"/>
<path d="M55.4667 0H6.4C2.8668 0.00346667 0.00346667 2.8668 0 6.4V27.3344V27.344V39.4667V42.6667C0.00346667 46.1999 2.8668 49.0632 6.4 49.0667H19.6075L15.3408 57.6H9.6C7.83267 57.6 6.4 59.0327 6.4 60.8C6.4 62.5673 7.83267 64 9.6 64H52.2667C54.034 64 55.4667 62.5673 55.4667 60.8C55.4667 59.0327 54.034 57.6 52.2667 57.6H46.5259L42.2592 49.0667H55.4667C58.9999 49.0632 61.8632 46.1999 61.8667 42.6667V6.4C61.8632 2.8668 58.9999 0.00346667 55.4667 0ZM2.13333 15.008L4.55787 17.8944C4.76053 18.1359 5.05973 18.2752 5.37493 18.2752H8.64C8.9552 18.2752 9.2544 18.1359 9.45707 17.8944L11.8827 15.008L14.2763 15.7856L14.5408 19.5435C14.5627 19.8577 14.7224 20.1463 14.9771 20.3317L17.6192 22.2517C17.8748 22.4363 18.1985 22.4991 18.5045 22.4235L22.1664 21.5136L23.6469 23.5499L21.6512 26.7499C21.4859 27.0181 21.4476 27.3457 21.5467 27.6448L22.5568 30.7499C22.654 31.0493 22.8784 31.2907 23.1701 31.4091L26.6667 32.8267V35.344L23.168 36.7616C22.8756 36.8795 22.6508 37.1215 22.5547 37.4219L22.2347 38.4H16.0896C18.48 33.3952 16.3605 27.4001 11.3557 25.0097C8.41613 23.6057 4.978 23.7148 2.13333 25.3024V15.008ZM2.13333 27.84C5.58347 25.1484 10.5624 25.7633 13.2539 29.2136C15.332 31.8773 15.4924 35.5659 13.6533 38.4H2.13333V27.84ZM52.2667 59.7333C52.8557 59.7333 53.3333 60.2109 53.3333 60.8C53.3333 61.3891 52.8557 61.8667 52.2667 61.8667H9.6C9.01093 61.8667 8.53333 61.3891 8.53333 60.8C8.53333 60.2109 9.01093 59.7333 9.6 59.7333H52.2667ZM44.1408 57.6H17.7259L21.9925 49.0667H39.8741L44.1408 57.6ZM59.7333 42.6667C59.7333 45.0231 57.8231 46.9333 55.4667 46.9333H6.4C4.0436 46.9333 2.13333 45.0231 2.13333 42.6667V40.5333H14.2101H14.2197H59.7333V42.6667ZM59.7333 38.4H24.8053L28.1344 37.0507C28.5365 36.8875 28.7997 36.4969 28.8 36.0629V32.1067C28.8001 31.6723 28.5369 31.2812 28.1344 31.1179L24.4267 29.6181L23.7248 27.4581L25.8389 24.0661C26.0683 23.6976 26.0513 23.2269 25.7963 22.8757L23.4709 19.6757C23.2156 19.3241 22.7727 19.1625 22.3509 19.2672L18.4725 20.2272L16.64 18.896L16.3595 14.9173C16.3289 14.4836 16.0381 14.1117 15.6245 13.9776L11.8645 12.7552C11.4508 12.6235 10.9985 12.7535 10.7179 13.0848L8.1504 16.1408H5.8752L3.30667 13.0848C3.02587 12.7531 2.57293 12.6229 2.15893 12.7552L2.13333 12.7648V6.4C2.13333 4.0436 4.0436 2.13333 6.4 2.13333H55.4667C57.8231 2.13333 59.7333 4.0436 59.7333 6.4V38.4Z" fill="#7F8284"/>
</svg>

<svg xmlns="http://www.w3.org/2000/svg" width="62" height="64" fill="none" xmlns:v="https://vecta.io/nano"><path d="M56.533 12.267h-28.8V14.4h28.8v-2.133zm0-4.267H36.267v2.133h20.267V8zM29.867 43.734a1.07 1.07 0 0 0 1.067 1.067c.589 0 1.066-.478 1.066-1.067s-.477-1.067-1.067-1.067-1.067.478-1.067 1.067zm17.087-16.575l-1.508-1.508-2.133 2.133c-.416.417-.416 1.092 0 1.508l2.133 2.133 1.508-1.508-1.379-1.379 1.379-1.379zm8.533.625l-2.133-2.133-1.508 1.508 1.379 1.379-1.379 1.379 1.508 1.508 2.133-2.133c.416-.417.416-1.092 0-1.508zM49.455 25l-2.135 6.4 2.023.675 2.135-6.4L49.455 25z" fill="#ff6b00"/><path d="M55.467 0H6.4A6.41 6.41 0 0 0 0 6.4v20.934.01 12.123 3.2a6.41 6.41 0 0 0 6.4 6.4h13.208L15.341 57.6H9.6a3.2 3.2 0 0 0 0 6.4h42.667a3.2 3.2 0 0 0 0-6.4h-5.741l-4.267-8.533h13.208a6.41 6.41 0 0 0 6.4-6.4V6.4a6.41 6.41 0 0 0-6.4-6.4zM2.133 15.008l2.425 2.886c.203.241.502.381.817.381H8.64c.315 0 .614-.139.817-.381l2.426-2.886 2.394.778.264 3.758c.022.314.182.603.436.788l2.642 1.92c.256.185.579.247.885.172l3.662-.91 1.48 2.036-1.996 3.2c-.165.268-.204.596-.104.895l1.01 3.105c.097.299.322.541.613.659l3.497 1.418v2.517l-3.499 1.418a1.06 1.06 0 0 0-.613.66l-.32.978H16.09c2.39-5.005.271-11-4.734-13.39-2.94-1.404-6.378-1.295-9.222.293V15.008zm0 12.832c3.45-2.692 8.429-2.077 11.121 1.374 2.078 2.664 2.239 6.352.399 9.186H2.133V27.84zm50.133 31.893c.589 0 1.067.478 1.067 1.067s-.478 1.067-1.067 1.067H9.6c-.589 0-1.067-.478-1.067-1.067s.478-1.067 1.067-1.067h42.667zM44.141 57.6H17.726l4.267-8.533h17.882l4.267 8.533zm15.593-14.933a4.27 4.27 0 0 1-4.267 4.267H6.4a4.27 4.27 0 0 1-4.267-4.267v-2.133H14.21h.01 45.514v2.133zm0-4.267H24.805l3.329-1.349c.402-.163.665-.554.666-.988v-3.956c0-.434-.263-.825-.666-.989l-3.708-1.5-.702-2.16 2.114-3.392c.229-.368.212-.839-.043-1.19l-2.325-3.2c-.255-.352-.698-.513-1.12-.409l-3.878.96-1.832-1.331-.28-3.979c-.031-.434-.321-.806-.735-.94l-3.76-1.222c-.414-.132-.866-.002-1.147.33L8.15 16.141H5.875l-2.569-3.056c-.281-.332-.734-.462-1.148-.33l-.026.01V6.4A4.27 4.27 0 0 1 6.4 2.133h49.067A4.27 4.27 0 0 1 59.733 6.4v32z" fill="#7f8284"/></svg>
